src/renderer/assets/icon/reloadStop-default-icon.svg

<?xml version="1.0" encoding="UTF-8"?>
<svg width="30px" height="30px" viewBox="0 0 30 30" version="1.1" xmlns="http://www.w3.org/2000/svg" xmlns:xlink="http://www.w3.org/1999/xlink">
    <!-- Generator: Sketch 57.1 (83088) - https://sketch.com -->
    <desc>Created with Sketch.</desc>
    <g id="menuBar/__icon/--stopRefresh" stroke="none" stroke-width="1" fill="none" fill-rule="evenodd">
        <path d="M10.1209632,8.98959236 L14.9992778,13.8682778 L19.8790368,8.98959236 C20.1630545,8.70557469 20.6074957,8.67975491 20.9206813,8.912133 L21.0104076,8.98959236 C21.3228271,9.30201179 21.3228271,9.80854378 21.0104076,10.1209632 L21.0104076,10.1209632 L16.1312778,14.9992778 L21.0104076,19.8790368 C21.3228271,20.1914562 21.3228271,20.6979882 21.0104076,21.0104076 C20.6979882,21.3228271 20.1914562,21.3228271 19.8790368,21.0104076 L14.9992778,16.1312778 L10.1209632,21.0104076 C9.83694554,21.2944253 9.39250428,21.3202451 9.07931869,21.087867 L8.98959236,21.0104076 C8.67717293,20.6979882 8.67717293,20.1914562 8.98959236,19.8790368 L8.98959236,19.8790368 L13.8682778,14.9992778 L8.98959236,10.1209632 C8.67717293,9.80854378 8.67717293,9.30201179 8.98959236,8.98959236 C9.30201179,8.67717293 9.80854378,8.67717293 10.1209632,8.98959236 Z" id="icon" fill="#7E808F" fill-rule="nonzero"></path>
    </g>
</svg>

<svg width="30" height="30" xmlns="http://www.w3.org/2000/svg">
    <path d="M10.121 8.99l4.878 4.878 4.88-4.878a.8.8 0 011.042-.078l.09.078a.8.8 0 010 1.131l-4.88 4.878 4.88 4.88a.8.8 0 11-1.132 1.131l-4.88-4.879-4.878 4.88a.8.8 0 01-1.042.077l-.09-.078a.8.8 0 010-1.131l4.88-4.88-4.88-4.878a.8.8 0 011.132-1.131z" fill="#7E808F"/>
</svg>
